Numix/16/mimetypes/application-x-sharedlib.svg

<?xml version="1.0" encoding="UTF-8" standalone="no"?>
<svg
   xmlns:dc="http://purl.org/dc/elements/1.1/"
   xmlns:cc="http://creativecommons.org/ns#"
   xmlns:rdf="http://www.w3.org/1999/02/22-rdf-syntax-ns#"
   xmlns:svg="http://www.w3.org/2000/svg"
   xmlns="http://www.w3.org/2000/svg"
   xmlns:sodipodi="http://sodipodi.sourceforge.net/DTD/sodipodi-0.dtd"
   xmlns:inkscape="http://www.inkscape.org/namespaces/inkscape"
   width="16"
   height="16"
   viewBox="0 0 16 16"
   id="svg2"
   version="1.1"
   inkscape:version="0.91 r13725"
   sodipodi:docname="application-x-sharedlib.svg">
  <metadata
     id="metadata16">
    <rdf:RDF>
      <cc:Work
         rdf:about="">
        <dc:format>image/svg+xml</dc:format>
        <dc:type
           rdf:resource="http://purl.org/dc/dcmitype/StillImage" />
        <dc:title />
      </cc:Work>
    </rdf:RDF>
  </metadata>
  <defs
     id="defs14" />
  <sodipodi:namedview
     pagecolor="#ffffff"
     bordercolor="#666666"
     borderopacity="1"
     objecttolerance="10"
     gridtolerance="10"
     guidetolerance="10"
     inkscape:pageopacity="0"
     inkscape:pageshadow="2"
     inkscape:window-width="1920"
     inkscape:window-height="1013"
     id="namedview12"
     showgrid="false"
     inkscape:zoom="1"
     inkscape:cx="2.6989297"
     inkscape:cy="6.267191"
     inkscape:window-x="0"
     inkscape:window-y="27"
     inkscape:window-maximized="1"
     inkscape:current-layer="svg2">
    <inkscape:grid
       type="xygrid"
       id="grid3018" />
  </sodipodi:namedview>
  <path
     style="fill:#dcdcdc;fill-opacity:1"
     d="M 2.667969,-4.46e-4 C 2.324219,-4.46e-4 2,0.3378121 2,0.6964468 L 2,15.303108 C 2,15.641365 2.34375,16 2.667969,16 l 10.664062,0 C 13.65625,16 14,15.641365 14,15.303108 l 0,-11.303554 -4,-4 z"
     id="path4-7"
     inkscape:connector-curvature="0"
     sodipodi:nodetypes="ssssssccs" />
  <path
     style="fill:#000000;fill-opacity:0.19599998"
     d="m 10.583223,3.331585 0.0154,0.019531 0.04005,-0.019531 z M 10.613,3.999554 14,7.663616 14,3.999554 z"
     id="path6-6"
     inkscape:connector-curvature="0"
     sodipodi:nodetypes="cccccccc" />
  <path
     style="fill:#ffffff;fill-opacity:0.39200003"
     d="m 10,-4.46e-4 3.996396,4 -3.383784,0 C 10.313513,3.999554 10,3.6824369 10,3.3833376 z"
     id="path8-0"
     inkscape:connector-curvature="0"
     sodipodi:nodetypes="ccssc" />
  <g
     id="g4403-8-5"
     transform="matrix(0.40476189,0,0,0.40476189,-11.190476,-7.7619042)"
     inkscape:transform-center-x="1.6474749"
     inkscape:transform-center-y="24.869028"
     style="fill:#888888;fill-opacity:1">
    <path
       style="color:#000000;display:inline;overflow:visible;visibility:visible;fill:#888888;fill-opacity:1;fill-rule:nonzero;stroke:none;stroke-width:1;marker:none;enable-background:accumulate"
       d="M 4 6 L 4 9 L 7 9 L 7 6 L 4 6 z M 5 7 L 6 7 L 6 8 L 5 8 L 5 7 z "
       transform="matrix(2.4705883,0,0,2.4705883,27.647059,19.17647)"
       id="path3078-8-8" />
  </g>
  <g
     id="g4403-8-5-6"
     transform="matrix(0.40476189,0,0,0.40476189,-6.190476,-3.7619042)"
     inkscape:transform-center-x="1.6474749"
     inkscape:transform-center-y="24.869028"
     style="fill:#888888;fill-opacity:1">
    <path
       inkscape:connector-curvature="0"
       style="color:#000000;display:inline;overflow:visible;visibility:visible;fill:#888888;fill-opacity:1;fill-rule:nonzero;stroke:none;stroke-width:1;marker:none;enable-background:accumulate"
       d="M 4,6 4,9 7,9 7,6 4,6 Z M 5,7 6,7 6,8 5,8 5,7 Z"
       transform="matrix(2.4705883,0,0,2.4705883,27.647059,19.17647)"
       id="path3078-8-8-3" />
  </g>
  <g
     id="g4403-1"
     transform="matrix(0.40476189,0,0,0.40476189,-6.3809516,-7.5714282)"
     inkscape:transform-center-x="1.6474747"
     inkscape:transform-center-y="24.869028"
     style="fill:#888888;fill-opacity:1">
    <path
       sodipodi:nodetypes="ccccc"
       id="path3078-7"
       d="m 38,33.529412 0,7.411765 7.411765,0 0,-7.411765 z"
       style="color:#000000;display:inline;overflow:visible;visibility:visible;fill:#888888;fill-opacity:1;fill-rule:nonzero;stroke:none;stroke-width:1;marker:none;enable-background:accumulate"
       inkscape:connector-curvature="0" />
  </g>
  <g
     id="g4403-1-5"
     transform="matrix(0.40476189,0,0,0.40476189,-11.380952,-3.5714282)"
     inkscape:transform-center-x="1.6474747"
     inkscape:transform-center-y="24.869028"
     style="fill:#888888;fill-opacity:1">
    <path
       sodipodi:nodetypes="ccccc"
       id="path3078-7-6"
       d="m 38,33.529412 0,7.411765 7.411765,0 0,-7.411765 z"
       style="color:#000000;display:inline;overflow:visible;visibility:visible;fill:#888888;fill-opacity:1;fill-rule:nonzero;stroke:none;stroke-width:1;marker:none;enable-background:accumulate"
       inkscape:connector-curvature="0" />
  </g>
</svg>

<svg xmlns="http://www.w3.org/2000/svg" viewBox="0 0 16 16">
 <path d="m 2.668 0 c -0.344 0 -0.668 0.338 -0.668 0.697 l 0 14.607 c 0 0.338 0.344 0.697 0.668 0.697 l 10.664 0 c 0.324 0 0.668 -0.359 0.668 -0.697 l 0 -11.304 -4 -4 z" style="fill:#dcdcdc;fill-opacity:1"/>
 <path d="m 10.583 3.332 0.015 0.02 0.04 -0.02 z m 0.03 0.668 3.387 3.664 0 -3.664 z" style="fill:#000;fill-opacity:0.196"/>
 <path d="m 10 0 3.996 4 -3.384 0 c -0.299 0 -0.613 -0.317 -0.613 -0.616 z" style="fill:#fff;fill-opacity:0.392"/>
 <g transform="matrix(0.40476189,0,0,0.40476189,-11.190476,-7.7619042)" style="fill:#888;fill-opacity:1">
  <path d="M 4 6 L 4 9 L 7 9 L 7 6 L 4 6 z M 5 7 L 6 7 L 6 8 L 5 8 L 5 7 z " transform="matrix(2.4705883,0,0,2.4705883,27.647059,19.17647)" style="visibility:visible;fill:#888;stroke:none;display:inline;color:#000;fill-rule:nonzero"/>
 </g>
 <g transform="matrix(0.40476189,0,0,0.40476189,-6.190476,-3.7619042)" style="fill:#888;fill-opacity:1">
  <path d="m 4 6 0 3 3 0 0 -3 -3 0 m 1 1 1 0 0 1 -1 0 0 -1" transform="matrix(2.4705883,0,0,2.4705883,27.647059,19.17647)" style="visibility:visible;fill:#888;stroke:none;display:inline;color:#000;fill-rule:nonzero"/>
 </g>
 <g transform="matrix(0.40476189,0,0,0.40476189,-6.3809516,-7.5714282)" style="fill:#888;fill-opacity:1">
  <path d="m 38 33.529 0 7.412 7.412 0 0 -7.412 z" style="visibility:visible;fill:#888;stroke:none;display:inline;color:#000;fill-rule:nonzero"/>
 </g>
 <g transform="matrix(0.40476189,0,0,0.40476189,-11.380952,-3.5714282)" style="fill:#888;fill-opacity:1">
  <path d="m 38 33.529 0 7.412 7.412 0 0 -7.412 z" style="visibility:visible;fill:#888;stroke:none;display:inline;color:#000;fill-rule:nonzero"/>
 </g>
</svg>
